Sources/FrostedUI/Resources/Icons.xcassets/webcamOn24.imageset/webcam-on-24.svg

<svg width="24" height="24" viewBox="0 0 24 24" fill="none" xmlns="http://www.w3.org/2000/svg" data-fui-icon="true">
  <path
    d="M12.375 3.375C14.6418 3.375 16.5699 4.81154 17.3047 6.82324L18.8604 5.40527C20.1123 4.26308 22.1248 5.15161 22.125 6.8457V17.1543C22.1249 18.8493 20.1118 19.7363 18.8604 18.5938L17.3047 17.1738C16.5706 19.1869 14.6428 20.625 12.375 20.625H7.125C4.22553 20.625 1.8751 18.2744 1.875 15.375V8.625C1.87513 5.72562 4.22559 3.375 7.125 3.375H12.375ZM7.125 4.875C5.05401 4.875 3.37513 6.55404 3.375 8.625V15.375L3.37988 15.5684C3.48059 17.5495 5.11887 19.125 7.125 19.125H12.375C14.2963 19.125 15.8801 17.679 16.0977 15.8154L16.1191 15.6982C16.2693 15.1333 16.9906 14.8566 17.4756 15.2988L19.8721 17.4863C20.143 17.7334 20.5679 17.5689 20.6201 17.2256L20.625 17.1543V6.8457C20.6248 6.45463 20.1606 6.25006 19.8721 6.5127L17.4756 8.69922C16.9584 9.17112 16.173 8.82509 16.0977 8.18359C15.8795 6.32077 14.2959 4.875 12.375 4.875H7.125Z"
    fill="currentColor"
  />
</svg>

<svg xmlns="http://www.w3.org/2000/svg" width="24" height="24" fill="none" data-fui-icon="true" viewBox="0 0 24 24"><path fill="currentColor" d="M12.375 3.375a5.25 5.25 0 0 1 4.93 3.448l1.555-1.418c1.252-1.142 3.265-.253 3.265 1.44v10.31c0 1.694-2.013 2.581-3.265 1.439l-1.555-1.42a5.25 5.25 0 0 1-4.93 3.451h-5.25a5.25 5.25 0 0 1-5.25-5.25v-6.75c0-2.9 2.35-5.25 5.25-5.25zm-5.25 1.5a3.75 3.75 0 0 0-3.75 3.75v6.75l.005.193a3.75 3.75 0 0 0 3.745 3.557h5.25a3.75 3.75 0 0 0 3.723-3.31l.021-.117c.15-.565.872-.841 1.357-.4l2.396 2.188a.45.45 0 0 0 .748-.26l.005-.072V6.846a.45.45 0 0 0-.753-.333l-2.396 2.186c-.518.472-1.303.126-1.378-.515a3.75 3.75 0 0 0-3.723-3.309z"/></svg>
